X: 34520
T: Ril Abergwaun
R: reel
M: 4/4
K: Dmajor
|:D3 E FDFA|BAGB A2 dc|BcdB AFDF|GEFD CEA,C|
D3 E FDFA|BAGB A2 dc|BABc defg|af (3efe d4:|
|:f3 f e3 e|dedB A3 A|G2 D2 BAGB|AGFD E2 EF|
D3 E FDFA|BAGB A2 dc|BABc defg|af (3efe d4:|

